X:1
T:Dippermouth Blues
C:Joe "King" Oliver (1923)
M:4/4
L:1/8
F:https://youtu.be/-wcAaXcC87w
R:traditional
K:Bbmaj
f4-fd=B_A | d=B_AF BAFD | F2 z2 G2 z2 | F2 z2 z F GF |
|: "Bb" B2G2D2F2 | "Eb" _dBc^F G B3 | "Bb" z2 B^C DFGB| "Bb7" d4 BFDB, | "Eb" _dBc^F G B3 |
"Eb" _d2 d2 (3 d/c/_d/ B GF | "Bb" B2 G^C DF D2 | "Bb" F2 z2 z ^c dc |
"F7" dB=c2 B4 | z2 ^cd B =c2 B-|"Bb" B6 z2 | z2 BB BAGF :|